X:1
T:The Heavens Declare Your Glory
T:Text: Psalm 19:1-6; vers. Thomas R. Birks, 1874, alt. Tune: Johann S. Bach, 1685-1750; adapt. from "My Heart Ever Faithful," Cantata 68
T:76 76 D FAITHFUL www.hymnary.org/text/the_heavens_declare_thy_glory_the_firm
T:The Heavens Declare Your Glory
T:This hymn is in the public domain. You may freely use this score for personal and congregational worship. If you reproduce the score, please credit Hymnary.org as the source. 
T:This hymn is in the public domain. You may freely use this score for personal and congregational worship. If you reproduce the score, please credit Hymnary.org as the source. 
Z:This hymn is in the public domain. You may freely use this score for personal and congregational worship. If you reproduce the score, please credit Hymnary.org as the source.
%%score ( 1 2 ) ( 3 4 )
L:1/8
M:4/4
K:C
V:1 treble nm="SOPRANO ALTO" snm="S. A."
V:2 treble 
V:3 bass nm="TENOR BASS" snm="T. B."
V:4 bass 
V:1
"^C""^1""^2""^3" G2 | G2 EF G2 c2 |"^G7" (B2 A2) G2 G2 |"^C" G2 EF G2 c2 |"^G7" (B2 A2 G2) | G2 | %6
w: The|heavens de- * clare your|glo- * ry, the|fir- ma- * ment your|power; * *|day|
w: The|sun with _ roy- al|splen- * dor goes|forth to * chant your|praise, * *|and|
w: All|heaven on * high re-|joic- * es to|do its * Mak- er's|will; * *|the|
"^C" c2 ed c2 G2 |"^Dm7" A4 A2 D2 |"^G" D2 E2"^G7" F2 G2 |"^C" E6 | G2 | G2 EF G2 c2 | %12
w: un- to * day the|sto- ry re-|peats from hour to|hour.|Night|un- to * night re-|
w: moon- beams _ soft and|ten- der their|gen- tler an- them|raise.|O'er|ev- ery * tribe and|
w: stars with * sol- emn|voic- es re-|sound your prais- es|still.|So|let my * whole be-|
"^G7" (B2 A2) G2 G2 |"^C" G2 EF G2 c2 |"^G7" (B2 A2 G2) |1 G2 |"^C" c2 ed c2"^C7" G2 | %17
w: ply- * ing, pro-|claims in * ev- ery|land, * *|O|Lord, with * voice un-|
w: na- * tion the|mu- sic * is out-|poured, * *|the|song of * all cre-|
w: hav- * ior, each|thought, each _ deed I|do, * *|be,|Lord, my * strength, my|
"^F" A4"^Dm" A2 Bc |"^C/G" E2 DC"^G7" D2 G2 |"^C" C6 x2 |] %20
w: dy- ing, the *|won- ders * of your|hand.|
w: a- tion to *|you, cre- * a- tion's|Lord.|
w: Sav- ior, a *|cease- less * song to|you.|
V:2
 E2 | E2 C2 C2 E2 | F4 F2 F2 | E2 C2 C2 E2 | F6 | F2 | E2 E2 G2 G2 | D4 D2 C2 | B,2 B,2 D2 B,2 | %9
 C6 | D2 | E2 C2 C2 E2 | F4 F2 F2 | E2 C2 C2 E2 | F6 |1 F2 | E2 E2 G2 E2 | C4 F2 D2 | %18
 C2 B,A, B,2 B,2 | C6 x2 |] %20
V:3
 G,2 | G,2 G,2 G,2 G,2 | G,4 B,2 G,2 | G,2 G,2 G,2 G,2 | (G,4 B,2) | G,2 | G,2 G,2 C2 C2 | %7
 C4 C2 A,2 | G,2 G,2 G,2 G,2 | G,6 | G,2 | G,2 G,2 G,2 G,2 | G,4 B,2 G,2 | G,2 G,2 G,2 G,2 | %14
 (G,4 B,2) |1 B,2 | G,2 G,2 C2 _B,2 | A,4 A,2 F,2 | G,2 G,2 G,2 F,2 | E,6 x2 |] %20
V:4
 C,2 | C,2 G,,2 E,2 C,2 | (D,2 G,,2) G,2 G,2 | C,2 G,,2 E,2 C,2 | (D,2 G,,2 G,2) | G,2 | %6
 C,2 C,2 E,2 E,2 | F,4 F,2 F,2 | G,2 D,2 B,,2 G,,2 | C,6 | B,,2 | C,2 G,,2 E,2 C,2 | %12
 (D,2 G,,2) G,2 G,2 | C,2 G,,2 E,2 C,2 | (D,2 G,,2 G,2) |1 G,2 | C,2 C,2 E,2 C,2 | F,4 D,2 D,2 | %18
 G,2 G,2 G,,2 G,,2 | C,6 x2 |] %20

